Sweet-Rainbow/icons/tigervnc.svg

<?xml version="1.0" encoding="UTF-8" standalone="no"?>
<!-- Generator: Gravit.io -->

<svg
   xmlns:dc="http://purl.org/dc/elements/1.1/"
   xmlns:cc="http://creativecommons.org/ns#"
   xmlns:rdf="http://www.w3.org/1999/02/22-rdf-syntax-ns#"
   xmlns:svg="http://www.w3.org/2000/svg"
   xmlns="http://www.w3.org/2000/svg"
   xmlns:sodipodi="http://sodipodi.sourceforge.net/DTD/sodipodi-0.dtd"
   xmlns:inkscape="http://www.inkscape.org/namespaces/inkscape"
   style="isolation:isolate"
   viewBox="0 0 36 36"
   width="48"
   height="48"
   version="1.1"
   id="svg16"
   sodipodi:docname="tigervnc.svg"
   inkscape:version="0.92.4 (5da689c313, 2019-01-14)">
  <metadata
     id="metadata22">
    <rdf:RDF>
      <cc:Work
         rdf:about="">
        <dc:format>image/svg+xml</dc:format>
        <dc:type
           rdf:resource="http://purl.org/dc/dcmitype/StillImage" />
        <dc:title></dc:title>
      </cc:Work>
    </rdf:RDF>
  </metadata>
  <defs
     id="defs20" />
  <sodipodi:namedview
     pagecolor="#ffffff"
     bordercolor="#666666"
     borderopacity="1"
     objecttolerance="10"
     gridtolerance="10"
     guidetolerance="10"
     inkscape:pageopacity="0"
     inkscape:pageshadow="2"
     inkscape:window-width="640"
     inkscape:window-height="480"
     id="namedview18"
     showgrid="false"
     inkscape:zoom="29.365243"
     inkscape:cx="25.325443"
     inkscape:cy="32"
     inkscape:current-layer="svg16"
     units="px" />
  <linearGradient
     id="_lgradient_0"
     x1="1.0310496"
     y1="0.50880176"
     x2="-0.068947434"
     y2="0.49944913"
     gradientTransform="matrix(-41.785,1.171,-1.203,-42.94,45.32,45.39)"
     gradientUnits="userSpaceOnUse">
    <stop
       offset="0%"
       stop-opacity="1"
       style="stop-color:rgb(255,224,49)"
       id="stop2" />
    <stop
       offset="98.69565217391305%"
       stop-opacity="1"
       style="stop-color:rgb(252,82,82)"
       id="stop4" />
  </linearGradient>
  <linearGradient
     id="_lgradient_1"
     x1="0"
     y1="0.5"
     x2="1"
     y2="0.5"
     gradientTransform="matrix(46.5,0,0,45,0.75,1.5)"
     gradientUnits="userSpaceOnUse">
    <stop
       offset="0%"
       stop-opacity="1"
       style="stop-color:rgb(255,224,49)"
       id="stop9" />
    <stop
       offset="98.69565217391305%"
       stop-opacity="1"
       style="stop-color:rgb(252,82,82)"
       id="stop11" />
  </linearGradient>
  <g
     id="g831"
     transform="matrix(0.77419355,0,0,0.77419355,-0.5806452,-0.5806452)">
    <path
       id="path7"
       d="m 39.565,43.57 0.164,-0.415 c 0.232,-0.586 0.846,-2.802 1.191,-4.291 0.217,-0.937 0.515,-1.821 1.16,-3.445 0.855,-2.153 1.569,-4.107 1.564,-4.28 -10e-4,-0.043 0.242,-1.072 0.504,-2.16 L 43.489,5.447 C 43.474,4.931 43.261,4.472 42.932,4.126 l -0.086,0.292 c -0.598,2.02 -1.053,3.828 -1.123,4.459 -0.041,0.367 -0.22,1.109 -0.397,1.651 -0.178,0.541 -0.348,1.258 -0.378,1.593 -0.029,0.335 -0.196,1.16 -0.37,1.833 -0.175,0.673 -0.316,1.309 -0.313,1.413 0.003,0.105 0.091,0.3 0.196,0.435 0.146,0.185 0.182,0.32 0.151,0.554 -0.036,0.263 -0.007,0.331 0.182,0.454 0.677,0.44 0.702,0.599 0.247,1.57 -0.179,0.383 -0.468,1.08 -0.64,1.55 -0.172,0.469 -0.767,1.994 -1.322,3.388 -0.959,2.411 -1.019,2.6 -1.239,3.891 -0.126,0.747 -0.227,1.425 -0.225,1.507 0.005,0.171 -1.473,4.198 -2.322,6.328 -0.571,1.432 -0.573,1.44 -0.551,2.223 0.018,0.637 -0.029,0.997 -0.254,1.898 -0.27,1.087 -0.275,1.129 -0.163,1.857 0.157,1.018 0.155,0.944 0.021,1.528 -0.065,0.287 -0.138,0.667 -0.163,0.846 l -0.046,0.326 z M 31.38,41.095 c 0.486,-0.529 -1.343,-0.961 -1.367,-1.016 -0.023,-0.056 0.029,-0.391 0.116,-0.744 0.088,-0.354 0.157,-0.762 0.153,-0.905 -0.004,-0.144 0.062,-0.671 0.147,-1.173 0.084,-0.501 0.172,-1.359 0.196,-1.906 0.05,-1.108 0.329,-2.324 0.998,-4.348 0.214,-0.648 0.623,-2.055 0.907,-3.127 0.305,-1.15 0.743,-2.526 1.068,-3.357 0.304,-0.775 0.577,-1.525 0.606,-1.668 0.03,-0.143 0.342,-1.046 0.694,-2.007 0.482,-1.314 0.656,-1.908 0.701,-2.397 0.033,-0.358 0.132,-0.924 0.221,-1.259 0.088,-0.335 0.223,-1.156 0.296,-1.823 0.151,-1.367 0.216,-1.665 0.448,-2.068 0.281,-0.486 0.475,-1.38 0.506,-2.31 0.022,-0.644 0.108,-1.193 0.307,-1.953 0.621,-2.377 0.649,-2.522 0.63,-3.257 -0.019,-0.705 0.115,-1.456 0.348,-1.946 L 38.469,3.589 33.045,3.741 33,4.012 c -0.101,0.593 -0.044,0.791 0.327,1.149 0.566,0.545 0.561,0.621 -0.17,3.196 -0.83,2.925 -1.49,5.533 -1.481,5.856 0.01,0.353 -0.264,1.189 -0.547,1.672 -0.592,1.012 -0.806,1.576 -1.689,4.428 -0.518,1.674 -1.031,3.317 -1.142,3.653 -0.116,0.349 -0.233,0.991 -0.273,1.5 -0.063,0.805 -0.138,1.082 -0.785,2.875 -0.394,1.091 -0.741,2.1 -0.769,2.243 -0.029,0.144 -0.264,0.852 -0.523,1.572 -0.558,1.554 -0.786,2.502 -0.766,3.189 0.012,0.45 0.042,0.526 0.28,0.727 0.34,0.286 0.361,0.704 0.093,1.798 -0.263,1.075 5.405,3.684 5.825,3.225 z m -13.857,3.093 0.228,-0.72 c 0.125,-0.395 0.361,1.772 0.524,1.149 0.164,-0.622 0.44,-4.486 0.616,-4.918 0.453,-1.108 1.075,-3.04 1.406,-4.365 0.311,-1.244 1.503,-5.496 2.282,-8.14 0.276,-0.934 0.719,-2.19 0.985,-2.792 0.321,-0.724 0.607,-1.57 0.844,-2.505 0.198,-0.777 0.621,-2.306 0.942,-3.397 0.322,-1.092 0.784,-2.722 1.028,-3.622 0.245,-0.9 0.582,-2.057 0.749,-2.571 0.296,-0.91 0.812,-2.989 1.654,-6.652 L 29.195,3.849 21.31,4.07 21.06,4.791 c -0.137,0.396 -0.425,1.269 -0.639,1.942 -0.381,1.202 -1.581,4.257 -2.179,5.548 -0.284,0.612 -0.363,0.702 -1.18,1.348 l -0.875,0.693 -0.63,-0.024 -0.63,-0.025 -0.621,0.443 c -0.715,0.51 -0.724,0.525 -1.141,1.66 -0.172,0.468 -0.484,1.175 -0.693,1.571 -0.208,0.395 -0.799,1.751 -1.312,3.016 -0.513,1.265 -1.212,2.872 -1.555,3.57 C 8.356,27.079 7.724,28.48 7.563,29.059 7.473,29.385 7.272,30.114 7.116,30.68 6.96,31.245 6.673,32.075 6.48,32.524 5.955,33.745 4.975,36.486 4.393,38.306 l 0.119,4.249 c 0.029,1.011 0.798,1.812 1.776,1.921 L 8.365,44.402 8.46,43.751 c 0.052,-0.358 0.193,-1.14 0.312,-1.738 0.124,-0.618 0.195,-1.215 0.167,-1.386 -0.038,-0.226 0.053,-0.586 0.36,-1.436 0.381,-1.057 0.841,-2.837 1.179,-4.561 0.091,-0.462 0.323,-1.122 0.634,-1.803 0.269,-0.591 0.488,-1.118 0.487,-1.171 -0.007,-0.23 0.754,-2.368 1.027,-2.885 0.165,-0.314 0.363,-0.736 0.438,-0.937 0.076,-0.2 0.325,-0.714 0.552,-1.142 0.228,-0.429 0.59,-1.211 0.804,-1.737 0.213,-0.525 0.598,-1.337 0.856,-1.804 0.258,-0.466 0.583,-1.094 0.721,-1.393 0.154,-0.334 0.515,-0.84 0.934,-1.308 0.828,-0.925 1.143,-1.349 1.384,-1.866 0.27,-0.577 0.484,-0.789 0.804,-0.798 0.152,-0.004 0.385,0.073 0.519,0.173 0.235,0.174 0.242,0.2 0.201,0.75 -0.024,0.314 -0.059,1.076 -0.078,1.695 -0.042,1.356 -0.104,1.547 -1.057,3.271 -0.894,1.616 -0.943,1.725 -1.167,2.504 -0.102,0.356 -0.351,0.973 -0.551,1.37 -1.087,2.148 -1.277,2.767 -1.243,4.054 0.006,0.223 -0.026,0.563 -0.072,0.754 -0.154,0.629 -2.152,8.981 -3.136,11.398 -0.218,0.536 -0.395,1.03 -0.393,1.099 0.002,0.069 0.225,0.319 0.493,0.555 0.268,0.236 0.488,-2.521 0.49,-2.459 10e-4,0.062 -0.124,0.397 -0.279,0.744 l -0.282,0.632 4.957,-0.139 z M 4.052,26.134 C 4.084,26.019 4.573,24.748 5.211,23.128 8.251,15.409 8.821,13.4 8.758,10.612 8.746,10.087 8.703,9.869 8.569,9.665 8.397,9.403 8.398,9.395 8.577,8.403 8.676,7.854 8.771,7.01 8.788,6.527 L 8.82,5.649 8.436,5.474 C 7.318,4.967 7.219,4.904 7.213,4.682 L 7.206,4.465 5.428,4.515 C 4.33,4.558 3.473,5.468 3.504,6.569 L 4.052,26.135 Z M 11.81,10.817 c 0.264,-0.008 1.171,-0.483 1.598,-0.838 0.399,-0.332 1.281,-1.531 1.482,-2.013 0.109,-0.265 0.316,-0.815 0.46,-1.223 0.143,-0.408 0.409,-1.057 0.59,-1.442 0.181,-0.386 0.351,-0.788 0.38,-0.896 l 0.051,-0.197 -4.994,0.14 -0.249,0.591 c -0.137,0.325 -0.289,0.765 -0.336,0.981 -0.048,0.215 -0.103,0.453 -0.122,0.529 -0.04,0.154 0.114,0.347 0.785,0.982 l 0.462,0.436 -0.277,1.325 c -0.308,1.472 -0.29,1.638 0.17,1.625 z"
       inkscape:connector-curvature="0"
       style="fill:url(#_lgradient_0)" />
    <path
       id="path14"
       d="m 16.263,42.67 c 0.525,0 1.029,0.201 1.405,0.565 0.366,0.354 0.574,0.843 0.574,1.35 0,0.508 -0.208,0.996 -0.574,1.35 -0.376,0.364 -0.88,0.565 -1.405,0.565 h -8.7 C 3.803,46.5 0.75,43.447 0.75,39.687 V 8.313 C 0.75,4.553 3.803,1.5 7.563,1.5 h 32.874 c 3.76,0 6.813,3.053 6.813,6.813 v 31.374 c 0,3.76 -3.053,6.813 -6.813,6.813 h -8.7 c -0.525,0 -1.029,-0.201 -1.405,-0.565 -0.366,-0.354 -0.574,-0.842 -0.574,-1.35 0,-0.507 0.208,-0.996 0.574,-1.35 0.376,-0.364 0.88,-0.565 1.405,-0.565 h 6.689 c 2.686,0 4.867,-2.18 4.867,-4.866 V 10.196 C 43.293,7.51 41.112,5.33 38.426,5.33 H 9.574 c -2.686,0 -4.867,2.18 -4.867,4.866 v 27.608 c 0,2.686 2.181,4.866 4.867,4.866 z"
       inkscape:connector-curvature="0"
       style="fill:url(#_lgradient_1);fill-rule:evenodd" />
  </g>
</svg>

<?xml version="1.0" encoding="UTF-8" standalone="no"?><!-- Generator: Gravit.io --><svg xmlns="http://www.w3.org/2000/svg" xmlns:xlink="http://www.w3.org/1999/xlink" style="isolation:isolate" viewBox="0 0 48 48" width="48pt" height="48pt"><linearGradient id="_lgradient_0" x1="1.0310495514398024" y1="0.5088017763995604" x2="-0.06894743577291895" y2="0.49944911900952105" gradientTransform="matrix(-41.785,1.171,-1.203,-42.94,45.32,45.39)" gradientUnits="userSpaceOnUse"><stop offset="0%" stop-opacity="1" style="stop-color:rgb(255,224,49)"/><stop offset="98.69565217391305%" stop-opacity="1" style="stop-color:rgb(252,82,82)"/></linearGradient><path d=" M 39.565 43.57 L 39.729 43.155 C 39.961 42.569 40.575 40.353 40.92 38.864 C 41.137 37.927 41.435 37.043 42.08 35.419 C 42.935 33.266 43.649 31.312 43.644 31.139 C 43.643 31.096 43.886 30.067 44.148 28.979 L 43.489 5.447 C 43.474 4.931 43.261 4.472 42.932 4.126 L 42.846 4.418 C 42.248 6.438 41.793 8.246 41.723 8.877 C 41.682 9.244 41.503 9.986 41.326 10.528 C 41.148 11.069 40.978 11.786 40.948 12.121 C 40.919 12.456 40.752 13.281 40.578 13.954 C 40.403 14.627 40.262 15.263 40.265 15.367 C 40.268 15.472 40.356 15.667 40.461 15.802 C 40.607 15.987 40.643 16.122 40.612 16.356 C 40.576 16.619 40.605 16.687 40.794 16.81 C 41.471 17.25 41.496 17.409 41.041 18.38 C 40.862 18.763 40.573 19.46 40.401 19.93 C 40.229 20.399 39.634 21.924 39.079 23.318 C 38.12 25.729 38.06 25.918 37.84 27.209 C 37.714 27.956 37.613 28.634 37.615 28.716 C 37.62 28.887 36.142 32.914 35.293 35.044 C 34.722 36.476 34.72 36.484 34.742 37.267 C 34.76 37.904 34.713 38.264 34.488 39.165 C 34.218 40.252 34.213 40.294 34.325 41.022 C 34.482 42.04 34.48 41.966 34.346 42.55 C 34.281 42.837 34.208 43.217 34.183 43.396 L 34.137 43.722 L 39.565 43.57 L 39.565 43.57 Z  M 31.38 41.095 C 31.866 40.566 30.037 40.134 30.013 40.079 C 29.99 40.023 30.042 39.688 30.129 39.335 C 30.217 38.981 30.286 38.573 30.282 38.43 C 30.278 38.286 30.344 37.759 30.429 37.257 C 30.513 36.756 30.601 35.898 30.625 35.351 C 30.675 34.243 30.954 33.027 31.623 31.003 C 31.837 30.355 32.246 28.948 32.53 27.876 C 32.835 26.726 33.273 25.35 33.598 24.519 C 33.902 23.744 34.175 22.994 34.204 22.851 C 34.234 22.708 34.546 21.805 34.898 20.844 C 35.38 19.53 35.554 18.936 35.599 18.447 C 35.632 18.089 35.731 17.523 35.82 17.188 C 35.908 16.853 36.043 16.032 36.116 15.365 C 36.267 13.998 36.332 13.7 36.564 13.297 C 36.845 12.811 37.039 11.917 37.07 10.987 C 37.092 10.343 37.178 9.794 37.377 9.034 C 37.998 6.657 38.026 6.512 38.007 5.777 C 37.988 5.072 38.122 4.321 38.355 3.831 L 38.469 3.589 L 33.045 3.741 L 33 4.012 C 32.899 4.605 32.956 4.803 33.327 5.161 C 33.893 5.706 33.888 5.782 33.157 8.357 C 32.327 11.282 31.667 13.89 31.676 14.213 C 31.686 14.566 31.412 15.402 31.129 15.885 C 30.537 16.897 30.323 17.461 29.44 20.313 C 28.922 21.987 28.409 23.63 28.298 23.966 C 28.182 24.315 28.065 24.957 28.025 25.466 C 27.962 26.271 27.887 26.548 27.24 28.341 C 26.846 29.432 26.499 30.441 26.471 30.584 C 26.442 30.728 26.207 31.436 25.948 32.156 C 25.39 33.71 25.162 34.658 25.182 35.345 C 25.194 35.795 25.224 35.871 25.462 36.072 C 25.802 36.358 25.823 36.776 25.555 37.87 C 25.292 38.945 30.96 41.554 31.38 41.095 Z  M 17.523 44.188 L 17.751 43.468 C 17.876 43.073 18.112 45.24 18.275 44.617 C 18.439 43.995 18.715 40.131 18.891 39.699 C 19.344 38.591 19.966 36.659 20.297 35.334 C 20.608 34.09 21.8 29.838 22.579 27.194 C 22.855 26.26 23.298 25.004 23.564 24.402 C 23.885 23.678 24.171 22.832 24.408 21.897 C 24.606 21.12 25.029 19.591 25.35 18.5 C 25.672 17.408 26.134 15.778 26.378 14.878 C 26.623 13.978 26.96 12.821 27.127 12.307 C 27.423 11.397 27.939 9.318 28.781 5.655 L 29.195 3.849 L 21.31 4.07 L 21.06 4.791 C 20.923 5.187 20.635 6.06 20.421 6.733 C 20.04 7.935 18.84 10.99 18.242 12.281 C 17.958 12.893 17.879 12.983 17.062 13.629 L 16.187 14.322 L 15.557 14.298 L 14.927 14.273 L 14.306 14.716 C 13.591 15.226 13.582 15.241 13.165 16.376 C 12.993 16.844 12.681 17.551 12.472 17.947 C 12.264 18.342 11.673 19.698 11.16 20.963 C 10.647 22.228 9.948 23.835 9.605 24.533 C 8.356 27.079 7.724 28.48 7.563 29.059 C 7.473 29.385 7.272 30.114 7.116 30.68 C 6.96 31.245 6.673 32.075 6.48 32.524 C 5.955 33.745 4.975 36.486 4.393 38.306 L 4.512 42.555 C 4.541 43.566 5.31 44.367 6.288 44.476 L 8.365 44.402 L 8.46 43.751 C 8.512 43.393 8.653 42.611 8.772 42.013 C 8.896 41.395 8.967 40.798 8.939 40.627 C 8.901 40.401 8.992 40.041 9.299 39.191 C 9.68 38.134 10.14 36.354 10.478 34.63 C 10.569 34.168 10.801 33.508 11.112 32.827 C 11.381 32.236 11.6 31.709 11.599 31.656 C 11.592 31.426 12.353 29.288 12.626 28.771 C 12.791 28.457 12.989 28.035 13.064 27.834 C 13.14 27.634 13.389 27.12 13.616 26.692 C 13.844 26.263 14.206 25.481 14.42 24.955 C 14.633 24.43 15.018 23.618 15.276 23.151 C 15.534 22.685 15.859 22.057 15.997 21.758 C 16.151 21.424 16.512 20.918 16.931 20.45 C 17.759 19.525 18.074 19.101 18.315 18.584 C 18.585 18.007 18.799 17.795 19.119 17.786 C 19.271 17.782 19.504 17.859 19.638 17.959 C 19.873 18.133 19.88 18.159 19.839 18.709 C 19.815 19.023 19.78 19.785 19.761 20.404 C 19.719 21.76 19.657 21.951 18.704 23.675 C 17.81 25.291 17.761 25.4 17.537 26.179 C 17.435 26.535 17.186 27.152 16.986 27.549 C 15.899 29.697 15.709 30.316 15.743 31.603 C 15.749 31.826 15.717 32.166 15.671 32.357 C 15.517 32.986 13.519 41.338 12.535 43.755 C 12.317 44.291 12.14 44.785 12.142 44.854 C 12.144 44.923 12.367 45.173 12.635 45.409 C 12.903 45.645 13.123 42.888 13.125 42.95 C 13.126 43.012 13.001 43.347 12.846 43.694 L 12.564 44.326 L 17.521 44.187 L 17.523 44.188 Z  M 4.052 26.134 C 4.084 26.019 4.573 24.748 5.211 23.128 C 8.251 15.409 8.821 13.4 8.758 10.612 C 8.746 10.087 8.703 9.869 8.569 9.665 C 8.397 9.403 8.398 9.395 8.577 8.403 C 8.676 7.854 8.771 7.01 8.788 6.527 L 8.82 5.649 L 8.436 5.474 C 7.318 4.967 7.219 4.904 7.213 4.682 L 7.206 4.465 L 5.428 4.515 C 4.33 4.558 3.473 5.468 3.504 6.569 L 4.052 26.135 L 4.052 26.134 Z  M 11.81 10.817 C 12.074 10.809 12.981 10.334 13.408 9.979 C 13.807 9.647 14.689 8.448 14.89 7.966 C 14.999 7.701 15.206 7.151 15.35 6.743 C 15.493 6.335 15.759 5.686 15.94 5.301 C 16.121 4.915 16.291 4.513 16.32 4.405 L 16.371 4.208 L 11.377 4.348 L 11.128 4.939 C 10.991 5.264 10.839 5.704 10.792 5.92 C 10.744 6.135 10.689 6.373 10.67 6.449 C 10.63 6.603 10.784 6.796 11.455 7.431 L 11.917 7.867 L 11.64 9.192 C 11.332 10.664 11.35 10.83 11.81 10.817 L 11.81 10.817 Z " fill="url(#_lgradient_0)"/><linearGradient id="_lgradient_1" x1="0" y1="0.5" x2="1" y2="0.5" gradientTransform="matrix(46.5,0,0,45,0.75,1.5)" gradientUnits="userSpaceOnUse"><stop offset="0%" stop-opacity="1" style="stop-color:rgb(255,224,49)"/><stop offset="98.69565217391305%" stop-opacity="1" style="stop-color:rgb(252,82,82)"/></linearGradient><path d=" M 16.263 42.67 C 16.788 42.67 17.292 42.871 17.668 43.235 C 18.034 43.589 18.242 44.078 18.242 44.585 C 18.242 45.093 18.034 45.581 17.668 45.935 C 17.292 46.299 16.788 46.5 16.263 46.5 L 7.563 46.5 C 3.803 46.5 0.75 43.447 0.75 39.687 L 0.75 8.313 C 0.75 4.553 3.803 1.5 7.563 1.5 L 40.437 1.5 C 44.197 1.5 47.25 4.553 47.25 8.313 L 47.25 39.687 C 47.25 43.447 44.197 46.5 40.437 46.5 L 31.737 46.5 C 31.212 46.5 30.708 46.299 30.332 45.935 C 29.966 45.581 29.758 45.093 29.758 44.585 C 29.758 44.078 29.966 43.589 30.332 43.235 C 30.708 42.871 31.212 42.67 31.737 42.67 L 38.426 42.67 C 41.112 42.67 43.293 40.49 43.293 37.804 L 43.293 10.196 C 43.293 7.51 41.112 5.33 38.426 5.33 L 9.574 5.33 C 6.888 5.33 4.707 7.51 4.707 10.196 L 4.707 37.804 C 4.707 40.49 6.888 42.67 9.574 42.67 L 16.263 42.67 Z " fill-rule="evenodd" fill="url(#_lgradient_1)"/></svg>
